packages/icons/src/__generated__/nav/svg/nav-walletProduct-12-inactive.svg

<svg xmlns="http://www.w3.org/2000/svg" fill="#1652F0" viewBox="0 0 12 12"><path d="M.989.995h10v6h-2.5v4l-7.5-4v-6Zm8.8 4.8v-3.6h-6.55l5.25 2.8v.8h1.3Zm-7.6.48 5.1 2.72v-3.28l-5.1-2.72v3.28Z"/></svg>

<svg xmlns="http://www.w3.org/2000/svg" fill="#1652F0" viewBox="0 0 12 12"><path d="M1 1h10v6H8.5v4L1 7V1Zm8.8 4.8V2.2H3.25L8.5 5v.8h1.3Zm-7.6.48L7.3 9V5.72L2.2 3v3.28Z"/></svg>
